documentation/public/assets/images/textarea-structure.svg

<svg width="672" height="188" viewBox="0 0 672 188" fill="none" xmlns="http://www.w3.org/2000/svg">
<rect width="672" height="188" fill="#F6F6F6"/>
<path d="M193.955 42H190.504V31.8182H194.024C195.035 31.8182 195.903 32.022 196.629 32.4297C197.358 32.834 197.919 33.4157 198.31 34.1747C198.701 34.9337 198.896 35.8419 198.896 36.8991C198.896 37.9598 198.699 38.8712 198.305 39.6335C197.914 40.3958 197.348 40.9808 196.609 41.3885C195.874 41.7962 194.989 42 193.955 42ZM192.349 40.4041H193.865C194.574 40.4041 195.166 40.2749 195.64 40.0163C196.114 39.7545 196.47 39.3651 196.709 38.848C196.947 38.3277 197.067 37.678 197.067 36.8991C197.067 36.1203 196.947 35.474 196.709 34.9602C196.47 34.4432 196.117 34.0571 195.65 33.8018C195.186 33.5433 194.609 33.4141 193.92 33.4141H192.349V40.4041ZM203.95 42.1491C203.184 42.1491 202.523 41.9901 201.966 41.6719C201.413 41.3504 200.987 40.8963 200.689 40.3097C200.39 39.7197 200.241 39.0253 200.241 38.2266C200.241 37.4411 200.39 36.7517 200.689 36.1584C200.99 35.5618 201.411 35.0978 201.951 34.7663C202.492 34.4316 203.126 34.2642 203.855 34.2642C204.326 34.2642 204.77 34.3404 205.188 34.4929C205.609 34.642 205.98 34.8741 206.301 35.1889C206.626 35.5038 206.882 35.9048 207.067 36.392C207.253 36.8759 207.346 37.4527 207.346 38.1222V38.674H201.086V37.4609H205.62C205.617 37.1162 205.542 36.8097 205.397 36.5412C205.251 36.2694 205.047 36.0556 204.785 35.8999C204.527 35.7441 204.225 35.6662 203.88 35.6662C203.512 35.6662 203.189 35.7557 202.911 35.9347C202.632 36.1103 202.415 36.3423 202.26 36.6307C202.107 36.9157 202.029 37.2289 202.026 37.5703V38.6293C202.026 39.0734 202.107 39.4545 202.27 39.7727C202.432 40.0876 202.659 40.3295 202.951 40.4986C203.242 40.6643 203.584 40.7472 203.975 40.7472C204.237 40.7472 204.474 40.7107 204.686 40.6378C204.898 40.5616 205.082 40.4505 205.238 40.3047C205.393 40.1589 205.511 39.9782 205.591 39.7628L207.271 39.9517C207.165 40.3958 206.963 40.7836 206.664 41.1151C206.369 41.4432 205.992 41.6984 205.531 41.8807C205.07 42.0597 204.543 42.1491 203.95 42.1491ZM212.681 34.3636V35.7557H208.291V34.3636H212.681ZM209.375 32.5341H211.175V39.7031C211.175 39.9451 211.211 40.1307 211.284 40.2599C211.36 40.3859 211.46 40.4721 211.583 40.5185C211.705 40.5649 211.841 40.5881 211.99 40.5881C212.103 40.5881 212.206 40.5798 212.298 40.5632C212.395 40.5466 212.468 40.5317 212.517 40.5185L212.82 41.9254C212.724 41.9586 212.587 41.995 212.408 42.0348C212.232 42.0746 212.017 42.0978 211.762 42.1044C211.311 42.1177 210.905 42.0497 210.544 41.9006C210.182 41.7481 209.896 41.5128 209.683 41.1946C209.475 40.8764 209.372 40.4787 209.375 40.0014V32.5341ZM216.384 42.1541C215.9 42.1541 215.464 42.0679 215.076 41.8956C214.692 41.7199 214.387 41.4614 214.162 41.12C213.94 40.7786 213.828 40.3577 213.828 39.8572C213.828 39.4264 213.908 39.0701 214.067 38.7884C214.226 38.5066 214.443 38.2812 214.718 38.1122C214.993 37.9432 215.303 37.8156 215.648 37.7294C215.996 37.6399 216.356 37.5753 216.727 37.5355C217.174 37.4891 217.537 37.4477 217.816 37.4112C218.094 37.3714 218.296 37.3118 218.422 37.2322C218.551 37.1494 218.616 37.0218 218.616 36.8494V36.8196C218.616 36.4451 218.505 36.1551 218.283 35.9496C218.061 35.7441 217.741 35.6413 217.324 35.6413C216.883 35.6413 216.533 35.7375 216.275 35.9297C216.019 36.1219 215.847 36.349 215.757 36.6108L214.077 36.3722C214.21 35.9081 214.428 35.5204 214.733 35.2088C215.038 34.8939 215.411 34.6586 215.852 34.5028C216.293 34.3438 216.78 34.2642 217.314 34.2642C217.681 34.2642 218.048 34.3073 218.412 34.3935C218.777 34.4796 219.11 34.6222 219.412 34.821C219.713 35.0166 219.955 35.2834 220.137 35.6214C220.323 35.9595 220.416 36.3821 220.416 36.8892V42H218.686V40.951H218.626C218.517 41.1631 218.363 41.362 218.164 41.5476C217.968 41.7299 217.721 41.8774 217.423 41.9901C217.128 42.0994 216.782 42.1541 216.384 42.1541ZM216.851 40.8317C217.212 40.8317 217.526 40.7604 217.791 40.6179C218.056 40.4721 218.26 40.2798 218.402 40.0412C218.548 39.8026 218.621 39.5424 218.621 39.2607V38.3608C218.565 38.4072 218.469 38.4503 218.333 38.4901C218.2 38.5298 218.051 38.5646 217.885 38.5945C217.72 38.6243 217.556 38.6508 217.393 38.674C217.231 38.6972 217.09 38.7171 216.971 38.7337C216.702 38.7701 216.462 38.8298 216.25 38.9126C216.038 38.9955 215.87 39.1115 215.748 39.2607C215.625 39.4065 215.564 39.5954 215.564 39.8274C215.564 40.1589 215.685 40.4091 215.926 40.5781C216.168 40.7472 216.477 40.8317 216.851 40.8317ZM222.225 42V34.3636H224.025V42H222.225ZM223.13 33.2798C222.845 33.2798 222.6 33.1854 222.395 32.9964C222.189 32.8042 222.086 32.5739 222.086 32.3054C222.086 32.0336 222.189 31.8033 222.395 31.6143C222.6 31.4221 222.845 31.326 223.13 31.326C223.419 31.326 223.664 31.4221 223.866 31.6143C224.072 31.8033 224.174 32.0336 224.174 32.3054C224.174 32.5739 224.072 32.8042 223.866 32.9964C223.664 33.1854 223.419 33.2798 223.13 33.2798ZM227.676 31.8182V42H225.876V31.8182H227.676ZM235.562 36.3821L233.921 36.5611C233.875 36.3954 233.794 36.2396 233.678 36.0938C233.565 35.9479 233.412 35.8303 233.22 35.7408C233.028 35.6513 232.793 35.6065 232.514 35.6065C232.14 35.6065 231.825 35.6877 231.57 35.8501C231.318 36.0125 231.193 36.223 231.197 36.4815C231.193 36.7036 231.275 36.8842 231.44 37.0234C231.609 37.1626 231.888 37.277 232.276 37.3665L233.578 37.6449C234.301 37.8007 234.838 38.0476 235.189 38.3857C235.544 38.7237 235.723 39.1662 235.726 39.7131C235.723 40.1937 235.582 40.6179 235.303 40.9858C235.028 41.3504 234.645 41.6354 234.155 41.8409C233.664 42.0464 233.101 42.1491 232.464 42.1491C231.53 42.1491 230.777 41.9536 230.207 41.5625C229.637 41.1681 229.298 40.6196 229.188 39.9169L230.943 39.7479C231.023 40.0926 231.192 40.3527 231.45 40.5284C231.709 40.7041 232.045 40.7919 232.46 40.7919C232.887 40.7919 233.23 40.7041 233.489 40.5284C233.75 40.3527 233.881 40.1357 233.881 39.8771C233.881 39.6584 233.797 39.4777 233.628 39.3352C233.462 39.1927 233.204 39.0833 232.852 39.0071L231.55 38.7337C230.817 38.5812 230.275 38.3243 229.924 37.9631C229.573 37.5985 229.399 37.1378 229.402 36.581C229.399 36.1103 229.526 35.7027 229.785 35.358C230.047 35.0099 230.41 34.7415 230.874 34.5526C231.341 34.3603 231.879 34.2642 232.489 34.2642C233.384 34.2642 234.089 34.4548 234.602 34.8359C235.119 35.2171 235.439 35.7325 235.562 36.3821Z" fill="#333333"/>
<path d="M243.697 37.5455L243.811 35.532L242.121 36.6406L241.514 35.5866L243.319 34.6818L241.514 33.777L242.121 32.723L243.811 33.8317L243.697 31.8182H244.905L244.795 33.8317L246.486 32.723L247.092 33.777L245.283 34.6818L247.092 35.5866L246.486 36.6406L244.795 35.532L244.905 37.5455H243.697Z" fill="#EE0505"/>
<rect x="190" y="54.5" width="292" height="101" rx="3.5" fill="white"/>
<path d="M202.273 63.6136V62.3636H211V63.6136H207.341V74H205.932V63.6136H202.273ZM215.386 74.1818C214.545 74.1818 213.82 73.9962 213.21 73.625C212.604 73.25 212.136 72.7273 211.807 72.0568C211.481 71.3826 211.318 70.5985 211.318 69.7045C211.318 68.8106 211.481 68.0227 211.807 67.3409C212.136 66.6553 212.595 66.1212 213.182 65.7386C213.773 65.3523 214.462 65.1591 215.25 65.1591C215.705 65.1591 216.153 65.2348 216.597 65.3864C217.04 65.5379 217.443 65.7841 217.807 66.125C218.17 66.4621 218.46 66.9091 218.676 67.4659C218.892 68.0227 219 68.7083 219 69.5227V70.0909H212.273V68.9318H217.636C217.636 68.4394 217.538 68 217.341 67.6136C217.148 67.2273 216.871 66.9223 216.511 66.6989C216.155 66.4754 215.735 66.3636 215.25 66.3636C214.716 66.3636 214.254 66.4962 213.864 66.7614C213.477 67.0227 213.18 67.3636 212.972 67.7841C212.763 68.2045 212.659 68.6553 212.659 69.1364V69.9091C212.659 70.5682 212.773 71.1269 213 71.5852C213.231 72.0398 213.551 72.3864 213.96 72.625C214.369 72.8598 214.845 72.9773 215.386 72.9773C215.739 72.9773 216.057 72.928 216.341 72.8295C216.629 72.7273 216.877 72.5758 217.085 72.375C217.294 72.1705 217.455 71.9167 217.568 71.6136L218.864 71.9773C218.727 72.4167 218.498 72.803 218.176 73.1364C217.854 73.4659 217.456 73.7235 216.983 73.9091C216.509 74.0909 215.977 74.1818 215.386 74.1818ZM221.805 65.2727L223.896 68.8409L225.987 65.2727H227.533L224.714 69.6364L227.533 74H225.987L223.896 70.6136L221.805 74H220.26L223.033 69.6364L220.26 65.2727H221.805ZM233.241 65.2727V66.4091H228.719V65.2727H233.241ZM230.037 63.1818H231.378V71.5C231.378 71.8788 231.433 72.1629 231.543 72.3523C231.656 72.5379 231.8 72.6629 231.974 72.7273C232.152 72.7879 232.34 72.8182 232.537 72.8182C232.685 72.8182 232.806 72.8106 232.901 72.7955C232.995 72.7765 233.071 72.7614 233.128 72.75L233.401 73.9545C233.31 73.9886 233.183 74.0227 233.02 74.0568C232.857 74.0947 232.651 74.1136 232.401 74.1136C232.022 74.1136 231.651 74.0322 231.287 73.8693C230.927 73.7064 230.628 73.4583 230.389 73.125C230.154 72.7917 230.037 72.3712 230.037 71.8636V63.1818Z" fill="#1F1F1F"/>
<rect x="190" y="54.5" width="292" height="101" rx="3.5" stroke="#545454"/>
</svg>

<svg width="672" height="188" fill="none" xmlns="http://www.w3.org/2000/svg"><path fill="#F6F6F6" d="M0 0h672v188H0z"/><path d="M193.96 42h-3.46V31.82h3.52c1.01 0 1.88.2 2.6.61.74.4 1.3.99 1.69 1.74.4.76.59 1.67.59 2.73s-.2 1.97-.6 2.73a4.1 4.1 0 0 1-1.7 1.76 5.4 5.4 0 0 1-2.64.61Zm-1.61-1.6h1.52c.7 0 1.3-.13 1.77-.38.47-.27.83-.65 1.07-1.17.24-.52.36-1.17.36-1.95s-.12-1.43-.36-1.94a2.5 2.5 0 0 0-1.06-1.16 3.52 3.52 0 0 0-1.73-.39h-1.57v7Zm11.6 1.75c-.77 0-1.43-.16-1.98-.48a3.23 3.23 0 0 1-1.28-1.36 4.55 4.55 0 0 1-.45-2.08c0-.79.15-1.48.45-2.07a3.38 3.38 0 0 1 3.16-1.9c.48 0 .92.08 1.34.23a3 3 0 0 1 1.11.7c.33.31.58.71.77 1.2.18.49.28 1.06.28 1.73v.55h-6.26v-1.2h4.53a2 2 0 0 0-.22-.93 1.63 1.63 0 0 0-.62-.64 1.72 1.72 0 0 0-.9-.23 1.8 1.8 0 0 0-1.62.96 2 2 0 0 0-.23.94v1.06c0 .44.08.82.24 1.14.16.32.39.56.68.73.3.16.63.25 1.03.25.26 0 .5-.04.7-.11.22-.08.4-.19.56-.34.15-.14.27-.32.35-.54l1.68.2c-.1.44-.3.82-.6 1.16-.3.32-.68.58-1.14.76-.46.18-.99.27-1.58.27Zm8.73-7.79v1.4h-4.39v-1.4h4.4Zm-3.3-1.83h1.8v7.17c0 .25.03.43.1.56.08.13.18.21.3.26.13.04.26.07.41.07a1.74 1.74 0 0 0 .53-.07l.3 1.4a3.98 3.98 0 0 1-1.06.18c-.45.02-.85-.05-1.22-.2a1.9 1.9 0 0 1-.86-.7c-.2-.32-.3-.72-.3-1.2v-7.47Zm7 9.62c-.48 0-.92-.08-1.3-.25a2.13 2.13 0 0 1-.92-.78 2.27 2.27 0 0 1-.33-1.26c0-.43.08-.79.24-1.07.16-.28.37-.5.65-.68.27-.17.58-.3.93-.38.35-.09.7-.15 1.08-.2l1.09-.12c.27-.04.48-.1.6-.18.13-.08.2-.2.2-.38v-.03c0-.37-.12-.66-.34-.87-.22-.2-.54-.3-.96-.3-.44 0-.79.09-1.04.28-.26.2-.43.42-.52.68l-1.68-.24a2.69 2.69 0 0 1 1.77-1.87 4.76 4.76 0 0 1 2.56-.1c.37.08.7.22 1 .42.3.2.55.46.73.8.18.34.28.76.28 1.27V42h-1.73v-1.05h-.06a2.19 2.19 0 0 1-1.2 1.04c-.3.1-.65.16-1.05.16Zm.47-1.32c.36 0 .68-.07.94-.21a1.55 1.55 0 0 0 .83-1.36v-.9a.84.84 0 0 1-.29.13 13.36 13.36 0 0 1-1.36.24c-.27.04-.5.1-.72.18-.21.09-.38.2-.5.35a.85.85 0 0 0-.19.57c0 .33.13.58.37.75.24.17.55.25.92.25Zm5.38 1.17v-7.64h1.8V42h-1.8Zm.9-8.72c-.28 0-.53-.1-.73-.28a.91.91 0 0 1-.31-.7c0-.27.1-.5.3-.69.21-.19.46-.28.74-.28.29 0 .53.1.74.28.2.2.3.42.3.7 0 .26-.1.5-.3.69-.2.19-.45.28-.74.28Zm4.55-1.46V42h-1.8V31.82h1.8Zm7.88 4.56-1.64.18a1.31 1.31 0 0 0-.7-.82c-.2-.09-.43-.13-.7-.13-.38 0-.7.08-.95.24-.25.16-.38.37-.37.63 0 .22.08.4.24.54.17.14.45.26.84.35l1.3.27c.72.16 1.26.4 1.6.75.36.33.54.78.55 1.32 0 .48-.15.9-.43 1.28-.27.36-.66.65-1.15.85-.49.2-1.05.3-1.69.3-.93 0-1.68-.19-2.25-.58-.57-.4-.91-.94-1.02-1.64l1.75-.17c.08.34.25.6.51.78.26.17.6.26 1.01.26.43 0 .77-.09 1.03-.26.26-.18.4-.4.4-.65a.7.7 0 0 0-.26-.54 1.77 1.77 0 0 0-.78-.33l-1.3-.28a3.1 3.1 0 0 1-1.63-.77 1.9 1.9 0 0 1-.52-1.38c0-.47.13-.88.38-1.22a2.5 2.5 0 0 1 1.1-.8 4 4 0 0 1 1.6-.3c.9 0 1.6.2 2.12.58.52.38.84.9.96 1.54Z" fill="#333"/><path d="m243.7 37.55.11-2.02-1.69 1.11-.6-1.05 1.8-.9-1.8-.91.6-1.06 1.7 1.11-.12-2.01h1.2l-.1 2.01 1.69-1.1.6 1.05-1.8.9 1.8.9-.6 1.06-1.7-1.1.12 2h-1.21Z" fill="#EE0505"/><rect x="190" y="54.5" width="292" height="101" rx="3.5" fill="#fff"/><path d="M202.27 63.61v-1.25H211v1.25h-3.66V74h-1.4V63.61h-3.67Zm13.12 10.57a3.73 3.73 0 0 1-3.58-2.13 5.34 5.34 0 0 1-.5-2.35c0-.89.17-1.68.5-2.36a3.7 3.7 0 0 1 3.44-2.18c.46 0 .9.07 1.35.23a3.34 3.34 0 0 1 2.08 2.08c.21.55.32 1.24.32 2.05v.57h-6.73v-1.16h5.37c0-.5-.1-.93-.3-1.32a2.22 2.22 0 0 0-2.09-1.25 2.47 2.47 0 0 0-2.28 1.42 3 3 0 0 0-.31 1.36v.77c0 .66.11 1.22.34 1.68.23.45.55.8.96 1.03.4.24.88.36 1.43.36.35 0 .67-.05.95-.15.29-.1.54-.25.75-.45.2-.2.37-.46.48-.77l1.3.37a2.9 2.9 0 0 1-.7 1.16c-.32.33-.71.58-1.19.77-.47.18-1 .27-1.6.27Zm6.42-8.9 2.09 3.56 2.09-3.57h1.54l-2.82 4.37 2.82 4.36H226l-2.1-3.39-2.08 3.39h-1.55l2.77-4.36-2.77-4.37h1.55Zm11.43 0v1.13h-4.52v-1.14h4.52Zm-3.2-2.1h1.34v8.32c0 .38.05.66.16.85.12.19.26.31.43.38.18.06.37.09.57.09.15 0 .27 0 .36-.02l.23-.05.27 1.2a2.73 2.73 0 0 1-1 .16 2.7 2.7 0 0 1-1.11-.24 2.21 2.21 0 0 1-.9-.75 2.14 2.14 0 0 1-.35-1.26v-8.68Z" fill="#1F1F1F"/><rect x="190" y="54.5" width="292" height="101" rx="3.5" stroke="#545454"/></svg>
